src/img/event_icons/paper.svg

<svg fill="none" height="13" viewBox="0 0 14 13" width="14" xmlns="http://www.w3.org/2000/svg"><path d="m9.625 12.875 3.5-3.5h-3.5zm2.1875-12.25h-9.625c-.73828 0-1.3125.57422-1.3125 1.3125v9.625c0 .7383.57422 1.3125 1.3125 1.3125h6.5625v-3.5c0-.46484.38281-.875.875-.875h3.5v-6.5625c0-.71094-.6016-1.3125-1.3125-1.3125z" fill="#000"/></svg>

<svg width="14" height="13" viewBox="0 0 14 13" fill="none" xmlns="http://www.w3.org/2000/svg">
<path d="M9.625 12.875L13.125 9.375H9.625V12.875ZM11.8125 0.625H2.1875C1.44922 0.625 0.875 1.19922 0.875 1.9375V11.5625C0.875 12.3008 1.44922 12.875 2.1875 12.875H8.75V9.375C8.75 8.91016 9.13281 8.5 9.625 8.5H13.125V1.9375C13.125 1.22656 12.5234 0.625 11.8125 0.625Z" fill="black"/>
</svg>
